assets/img/ticon10.svg

<svg width="48" height="48" viewBox="0 0 48 48" fill="none" xmlns="http://www.w3.org/2000/svg">
<circle cx="24" cy="24" r="24" fill="#FFC940"/>
<path d="M27.1322 16.7914C27.1322 18.3354 23.9681 19.593 20.0714 19.593C16.1747 19.593 13 18.3456 13 16.7914C13 15.2474 16.1641 14 20.0608 14C23.9575 14 27.1322 15.2474 27.1322 16.7914Z" fill="black"/>
<path d="M26.9942 21.546C27.0367 21.4847 27.0792 21.4438 27.1216 21.3722C27.1216 21.2188 27.1004 21.0654 27.0579 20.9121C27.0261 20.7894 26.8774 20.7382 26.7606 20.8098C25.0512 21.8527 22.6834 22.4969 20.0502 22.4969C17.3108 22.4969 14.8475 21.7914 13.1274 20.6769C13.0531 20.9018 13 21.137 13 21.3722C13 23.2536 16.1641 24.7771 20.0608 24.7771C21.0907 24.7771 22.057 24.6748 22.9382 24.4806C23.0338 24.4601 23.1187 24.409 23.1718 24.3272C24.1168 23.0491 25.444 22.0777 26.9942 21.546Z" fill="black"/>
<path d="M21.7172 28.7239C21.7172 28.3047 21.749 27.8855 21.8234 27.4867C21.8658 27.2413 21.6641 27.0266 21.3986 27.047C20.9633 27.0879 20.5174 27.1084 20.0608 27.1084C17.3214 27.1084 14.8581 26.4028 13.138 25.2883C13.0531 25.5031 13 25.7382 13 25.9734C13 27.8548 16.1641 29.3783 20.0608 29.3783C20.4431 29.3783 20.8147 29.3681 21.1757 29.3374C21.4836 29.317 21.7172 29.0613 21.7172 28.7546V28.7239Z" fill="black"/>
<path d="M22.3967 31.8221C22.3224 31.6687 22.1525 31.5767 21.9826 31.5971C21.3668 31.6789 20.7191 31.7198 20.0714 31.7198C17.332 31.7198 14.8687 31.0143 13.1486 29.8998C13.0531 30.1145 13 30.3395 13 30.5746C13 32.456 16.1641 33.9795 20.0608 33.9795C21.0801 33.9795 22.0357 33.8773 22.917 33.6932C23.1931 33.6319 23.3098 33.3251 23.1506 33.1002C22.8533 32.7014 22.6091 32.272 22.3967 31.8221Z" fill="black"/>
<path d="M35 28.6319C35 31.5971 32.5048 34 29.4256 34C26.3465 34 23.8513 31.5971 23.8513 28.6319C23.8513 25.6667 26.3465 23.2638 29.4256 23.2638C32.5048 23.2638 35 25.6769 35 28.6319Z" fill="black"/>
</svg>

<svg width="48" height="48" fill="none" xmlns="http://www.w3.org/2000/svg"><circle cx="24" cy="24" r="24" fill="#FFC940"/><path d="M27.132 16.791c0 1.544-3.164 2.802-7.06 2.802-3.897 0-7.072-1.247-7.072-2.802C13 15.247 16.164 14 20.06 14c3.898 0 7.072 1.247 7.072 2.791zm-.138 4.755c.043-.061.085-.102.128-.174 0-.153-.022-.307-.064-.46-.032-.123-.18-.174-.297-.102-1.71 1.043-4.078 1.687-6.71 1.687-2.74 0-5.203-.706-6.924-1.82-.074.225-.127.46-.127.695 0 1.882 3.164 3.405 7.06 3.405 1.03 0 1.997-.102 2.878-.296a.363.363 0 00.234-.154 7.942 7.942 0 013.822-2.781zm-5.277 7.178c0-.42.032-.838.106-1.237.043-.246-.159-.46-.424-.44-.436.04-.882.061-1.338.061-2.74 0-5.203-.705-6.923-1.82-.085.215-.138.45-.138.685 0 1.882 3.164 3.405 7.06 3.405.383 0 .755-.01 1.116-.04a.58.58 0 00.541-.583v-.031zm.68 3.098a.41.41 0 00-.414-.225c-.616.082-1.264.123-1.912.123-2.739 0-5.202-.706-6.922-1.82-.096.215-.149.44-.149.675 0 1.881 3.164 3.405 7.06 3.405 1.02 0 1.976-.103 2.857-.287a.378.378 0 00.234-.593 7.426 7.426 0 01-.754-1.278zM35 28.632C35 31.597 32.505 34 29.426 34c-3.08 0-5.575-2.403-5.575-5.368 0-2.965 2.495-5.368 5.575-5.368 3.079 0 5.574 2.413 5.574 5.368z" fill="#000"/></svg>
